!!!!SEGMENT: pl-kk--kk-i-636--003-001_anonim--in-sabbato-sancto-lamentatio-1ma.krn
!!!cenid: 18xx:4547
!!!COM: Anonim
!!!COM-rismID: pe30004985
!!!CDT:
!!!CNT:
!!!OPR: In Sabbato Sancto
!!!OTL: Lamentatio 1ma
!!!OMV: 001
!!!PDT:
!!!AGN: Sacred
!!!YEC: Copyright 2022 Narodowy Instytut Fryderyka Chopina (https://polishscores.org)
!!!YEM: License CC-BY-4.0 (https://creativecommons.org/licenses/by/4.0)
!!!SMS-siglum: PL-Kk
!!!SMS-shelfmark: Kk.I.636
!!!SMS-variant:
!!!SMS-altvar:
!!!SMS-shelfwork: 003-001 M
!!!NIFC-rismSourceID: 1001216440
!!!NIFC-rismChildID: 1001216926
!!!NIFC-islandoraID: pl-kk:40786
!!!URL-pdf-islandora: https://repozytorium.nifc.pl/islandora/object/pl-kk%3A40786/datastream/PDF/view
!!!URL-scan: https://polish.musicsources.pl/pl/lokalizacje/galeria/rekopisy/7271/1 @EN{Scan on Polish Music Sources Website} @PL{Skany w portalu Dziedzictwo Muzyki Polskiej w otwartym dostępie}
!!!IIIF:
!!!ONB-nifc: UWAGA: Lamentacje i Responsoria In Sabbato Sancto na skanach: S – 15-20, A – 37-42, T – 60-66, B - 86-92. Każda Lamentacja i Responsorium to oddzielne pliki.
!!!AIN: 1 alto 1 bass 1 soprn 1 tenor
!!!key:
**kern	**kern	**text	**kern	**kern
*part4	*part3	*part3	*part2	*part1
*staff4	*staff3	*staff3	*staff2	*staff1
*I"Basso.	*I"Tenore.	*	*I"Alto.	*I"Soprano.
*I'B	*I'T	*	*I'A	*I'S
*Ibass	*Itenor	*	*Ialto	*Isoprn
*ICvox	*ICvox	*	*ICvox	*ICvox
*clefF4	*clefC1	*	*clefG2	*clefG2
*k[f#c#]	*k[f#c#]	*	*k[f#c#]	*k[f#c#]
*f#:	*f#:	*	*f#:	*f#:
*M2/4	*M2/4	*	*M2/4	*M2/4
=1	=1	=1	=1	=1
!LO:TX:a:t=Tacet.	!	!	!LO:TX:a:t=Tacet.	!LO:TX:a:t=Tacet.
2ryy	4a\	De	2ryy	2ryy
.	(4b\	la-	.	.
=2	=2	=2	=2	=2
2ryy	8cc#\)	.	2ryy	2ryy
.	8cc#\	-men-	.	.
.	8cc#\	-ta-	.	.
.	8cc#\	-ti-	.	.
!	!LO:LB:g=original	!	!	!
=3	=3	=3	=3	=3
2ryy	8cc#\	-o-	2ryy	2ryy
.	8cc#\	-ne	.	.
.	4r	.	.	.
=4	=4	=4	=4	=4
2ryy	4r	.	2ryy	2ryy
.	8cc#\	Je-	.	.
.	8cc#\	-re-	.	.
=5	=5	=5	=5	=5
2ryy	4dd\	-mi-	2ryy	2ryy
.	8b\	-e	.	.
.	8b\	Pro-	.	.
=6	=6	=6	=6	=6
2ryy	4a\	-phe-	2ryy	2ryy
.	4g\	.	.	.
=7	=7	=7	=7	=7
2ryy	4a\	.	2ryy	2ryy
.	4b\	.	.	.
=8	=8	=8	=8	=8
*	*2\right	*	*	*
2ryy	2b\	-tae	2ryy	2ryy
=9	=9	=9	=9	=9
2ryy	2a;\	.	2ryy	2ryy
!	!LO:LB:g=original	!	!	!
=10||	=10||	=10||	=10||	=10||
2ryy	4cc#\	Beth,	2ryy	2ryy
.	4b\	.	.	.
=11	=11	=11	=11	=11
2ryy	4a\	.	2ryy	2ryy
.	4b\	.	.	.
=12	=12	=12	=12	=12
2ryy	2a;\	.	2ryy	2ryy
=13||	=13||	=13||	=13||	=13||
2ryy	4a\	mi-	2ryy	2ryy
.	(4b\	-se-	.	.
=14	=14	=14	=14	=14
2ryy	8cc#\)	.	2ryy	2ryy
.	8cc#\	-ri-	.	.
.	8cc#\	-cor-	.	.
.	16cc#\	-di-	.	.
.	16cc#\	-ae	.	.
!	!LO:LB:g=original	!	!	!
=15	=15	=15	=15	=15
2ryy	8cc#\	Do-	2ryy	2ryy
.	8cc#\	-mi-	.	.
.	4cc#\	-ni	.	.
=16	=16	=16	=16	=16
2ryy	8r	.	2ryy	2ryy
.	8cc#\	qui-	.	.
.	8cc#\	-a	.	.
.	8cc#\	non	.	.
=17	=17	=17	=17	=17
2ryy	4dd\	su-	2ryy	2ryy
.	8cc#\	-mus	.	.
.	8cc#\	con-	.	.
=18	=18	=18	=18	=18
2ryy	4b\	-sum-	2ryy	2ryy
.	(4b\	-pti,	.	.
=19	=19	=19	=19	=19
2ryy	4cc#\)	.	2ryy	2ryy
.	4r	.	.	.
!	!LO:LB:g=original	!	!	!
=20	=20	=20	=20	=20
2ryy	4a\	qui-	2ryy	2ryy
.	4b\	-a	.	.
=21	=21	=21	=21	=21
2ryy	4cc#\	non	2ryy	2ryy
.	8cc#\	de-	.	.
.	8cc#\	-fe-	.	.
=22	=22	=22	=22	=22
2ryy	8cc#\	-ce-	2ryy	2ryy
.	8cc#\	-runt	.	.
.	4r	.	.	.
=23	=23	=23	=23	=23
2ryy	8cc#\	mi-	2ryy	2ryy
.	8cc#\	-se-	.	.
.	8cc#\	-a-	.	.
.	8cc#\	-ti-	.	.
=24	=24	=24	=24	=24
2ryy	4dd\	-o-	2ryy	2ryy
.	4b\	-nes	.	.
!	!LO:LB:g=original	!	!	!
=25	=25	=25	=25	=25
2ryy	4a\	e-	2ryy	2ryy
.	4g\	.	.	.
=26	=26	=26	=26	=26
2ryy	4a\	.	2ryy	2ryy
.	4b\	.	.	.
=27	=27	=27	=27	=27
2ryy	2b\	-jus.	2ryy	2ryy
=28	=28	=28	=28	=28
2ryy	2a;\	.	2ryy	2ryy
=29||	=29||	=29||	=29||	=29||
2ryy	4cc#\	Heth,	2ryy	2ryy
.	4b\	.	.	.
=30	=30	=30	=30	=30
2ryy	4a\	.	2ryy	2ryy
.	4b\	.	.	.
=31	=31	=31	=31	=31
2ryy	2a;\	.	2ryy	2ryy
!	!LO:LB:g=original	!	!	!
=32||	=32||	=32||	=32||	=32||
2ryy	4a\	no-	2ryy	2ryy
.	(4b\	.	.	.
=33	=33	=33	=33	=33
2ryy	8cc#\)	.	2ryy	2ryy
.	8cc#\	-vi,	.	.
.	4r	.	.	.
=34	=34	=34	=34	=34
2ryy	4dd\	di-	2ryy	2ryy
.	(4cc#\	-lu-	.	.
=35	=35	=35	=35	=35
2ryy	8b\)	.	2ryy	2ryy
.	8b\	-cu-	.	.
.	4b\	-lo,	.	.
=36	=36	=36	=36	=36
2ryy	4cc#\	.	2ryy	2ryy
.	4r	.	.	.
=37	=37	=37	=37	=37
2ryy	8cc#\	mul-	2ryy	2ryy
.	8cc#\	-ta	.	.
.	4cc#\	est	.	.
!	!LO:LB:g=original	!	!	!
=38	=38	=38	=38	=38
2ryy	4dd\	fi-	2ryy	2ryy
.	4b\	-des	.	.
=39	=39	=39	=39	=39
2ryy	4a\	tu-	2ryy	2ryy
.	4g\	.	.	.
=40	=40	=40	=40	=40
2ryy	4a\	.	2ryy	2ryy
.	4g\	.	.	.
=41	=41	=41	=41	=41
2ryy	4a\	.	2ryy	2ryy
.	4b\	.	.	.
=42	=42	=42	=42	=42
2ryy	2b\	-a,	2ryy	2ryy
=43	=43	=43	=43	=43
2ryy	2a;\	.	2ryy	2ryy
=44||	=44||	=44||	=44||	=44||
2ryy	4cc#\	Heth,	2ryy	2ryy
.	4b\	.	.	.
=45	=45	=45	=45	=45
2ryy	4a\	.	2ryy	2ryy
.	4b\	.	.	.
=46	=46	=46	=46	=46
2ryy	2a;\	.	2ryy	2ryy
!	!LO:LB:g=original	!	!	!
=47||	=47||	=47||	=47||	=47||
2ryy	4a\	pars	2ryy	2ryy
.	8b\	me-	.	.
.	8cc#\	-a	.	.
=48	=48	=48	=48	=48
2ryy	8cc#\	Do-	2ryy	2ryy
.	8cc#\	-mi-	.	.
.	4cc#\	-nus	.	.
=49	=49	=49	=49	=49
2ryy	4r	.	2ryy	2ryy
.	8cc#\	di-	.	.
.	8cc#\	-xit	.	.
=50	=50	=50	=50	=50
2ryy	8.dd\	a-	2ryy	2ryy
.	16cc#\	-ni-	.	.
.	4cc#\	-ma	.	.
!	!LO:LB:g=original	!	!	!
=51	=51	=51	=51	=51
2ryy	4b\	me-	2ryy	2ryy
.	(4b\	-a	.	.
=52	=52	=52	=52	=52
2ryy	4cc#\)	.	2ryy	2ryy
.	4r	.	.	.
=53	=53	=53	=53	=53
2ryy	8r	.	2ryy	2ryy
.	8cc#\	pro-	.	.
.	8cc#\	-ptre-	.	.
.	16cc#\	-re-	.	.
.	16cc#\	-a	.	.
=54	=54	=54	=54	=54
2ryy	4r	.	2ryy	2ryy
.	8cc#\	ex-	.	.
.	8cc#\	-pe-	.	.
=55	=55	=55	=55	=55
2ryy	4dd\	-cta-	2ryy	2ryy
.	4b\	-bo	.	.
!	!LO:LB:g=original	!	!	!
=56	=56	=56	=56	=56
2ryy	4a\	e-	2ryy	2ryy
.	4g\	.	.	.
=57	=57	=57	=57	=57
2ryy	4a\	.	2ryy	2ryy
.	4b\	.	.	.
=58	=58	=58	=58	=58
2ryy	2b\	-um,	2ryy	2ryy
=59	=59	=59	=59	=59
2ryy	2a;\	.	2ryy	2ryy
=60||	=60||	=60||	=60||	=60||
2ryy	4cc#\	Jeth,	2ryy	2ryy
.	4b\	.	.	.
=61	=61	=61	=61	=61
2ryy	4a\	.	2ryy	2ryy
.	4b\	.	.	.
=62	=62	=62	=62	=62
2ryy	2a;\	.	2ryy	2ryy
=63||	=63||	=63||	=63||	=63||
2ryy	(4a\	bo-	2ryy	2ryy
.	(4b\)	.	.	.
!	!LO:LB:g=original	!	!	!
=64	=64	=64	=64	=64
2ryy	8cc#\)	.	2ryy	2ryy
.	8cc#\	-nus	.	.
.	8r	.	.	.
.	8cc#\	est	.	.
=65	=65	=65	=65	=65
2ryy	16cc#\	Do-	2ryy	2ryy
.	16cc#\	-mi-	.	.
.	8cc#\	-nus	.	.
.	8r	.	.	.
.	8cc#\	spe-	.	.
=66	=66	=66	=66	=66
2ryy	8.dd\	-ran-	2ryy	2ryy
.	16cc#\	-ti-	.	.
.	8cc#\	-bus	.	.
.	8cc#\	in	.	.
=67	=67	=67	=67	=67
2ryy	4b\	e-	2ryy	2ryy
.	4b\	-um,	.	.
=68	=68	=68	=68	=68
2ryy	4cc#\	.	2ryy	2ryy
.	4r	.	.	.
!	!LO:PB:g=original	!	!	!
=69	=69	=69	=69	=69
2ryy	8cc#\	a-	2ryy	2ryy
.	8cc#\	-ni-	.	.
.	8cc#\	-me	.	.
.	8cc#\	que-	.	.
=70	=70	=70	=70	=70
2ryy	4dd\	-ren-	2ryy	2ryy
.	4b\	-ti	.	.
=71	=71	=71	=71	=71
2ryy	4a\	il-	2ryy	2ryy
.	4g\	.	.	.
=72	=72	=72	=72	=72
2ryy	4a\	.	2ryy	2ryy
.	4b\	.	.	.
=73	=73	=73	=73	=73
2ryy	2b\	-lum,	2ryy	2ryy
=74	=74	=74	=74	=74
2ryy	2a;\	.	2ryy	2ryy
!	!LO:LB:g=original	!	!	!
=75||	=75||	=75||	=75||	=75||
2ryy	4cc#\	Jeth,	2ryy	2ryy
.	4b\	.	.	.
=76	=76	=76	=76	=76
2ryy	4a\	.	2ryy	2ryy
.	4b\	.	.	.
=77	=77	=77	=77	=77
2ryy	2a;\	.	2ryy	2ryy
=78||	=78||	=78||	=78||	=78||
2ryy	4a\	bo-	2ryy	2ryy
.	(4b\	.	.	.
=79	=79	=79	=79	=79
2ryy	8cc#\)	.	2ryy	2ryy
.	8cc#\	-num	.	.
.	4cc#\	est	.	.
=80	=80	=80	=80	=80
2ryy	4r	.	2ryy	2ryy
.	8cc#\	pre-	.	.
.	8cc#\	-sto-	.	.
!	!LO:LB:g=original	!	!	!
=81	=81	=81	=81	=81
2ryy	8cc#\	-la-	2ryy	2ryy
.	8cc#\	-ri	.	.
.	8cc#\	cum	.	.
.	8cc#\	si-	.	.
=82	=82	=82	=82	=82
2ryy	8cc#\	-len-	2ryy	2ryy
.	8cc#\	-ti-	.	.
.	4cc#\	-o	.	.
=83	=83	=83	=83	=83
2ryy	4r	.	2ryy	2ryy
.	8cc#\	sa-	.	.
.	8cc#\	-lu-	.	.
=84	=84	=84	=84	=84
2ryy	4dd\	-ta-	2ryy	2ryy
.	4b\	-re	.	.
=85	=85	=85	=85	=85
2ryy	4a\	De-	2ryy	2ryy
.	4g\	.	.	.
!	!LO:LB:g=original	!	!	!
=86	=86	=86	=86	=86
2ryy	4a\	.	2ryy	2ryy
.	4b\	.	.	.
=87	=87	=87	=87	=87
2ryy	2b\	-i,	2ryy	2ryy
=88	=88	=88	=88	=88
2ryy	2a;\	.	2ryy	2ryy
=89||	=89||	=89||	=89||	=89||
2ryy	4cc#\	Jeth,	2ryy	2ryy
.	4b\	.	.	.
=90	=90	=90	=90	=90
2ryy	4a\	.	2ryy	2ryy
.	4b\	.	.	.
=91	=91	=91	=91	=91
2ryy	2a;\	.	2ryy	2ryy
=92||	=92||	=92||	=92||	=92||
2ryy	4a\	bo-	2ryy	2ryy
.	(4b\	.	.	.
=93	=93	=93	=93	=93
2ryy	8cc#\)	.	2ryy	2ryy
.	8cc#\	-num	.	.
.	4r	.	.	.
!	!LO:LB:g=original	!	!	!
=94	=94	=94	=94	=94
2ryy	(4dd\	est	2ryy	2ryy
.	4cc#\)	.	.	.
=95	=95	=95	=95	=95
2ryy	4b\	vi-	2ryy	2ryy
.	4b\	-ro	.	.
=96	=96	=96	=96	=96
2ryy	4cc#\	.	2ryy	2ryy
.	4r	.	.	.
=97	=97	=97	=97	=97
2ryy	4r	.	2ryy	2ryy
.	8cc#\	cum	.	.
.	8cc#\	por-	.	.
=98	=98	=98	=98	=98
2ryy	8.cc#\	-ta	2ryy	2ryy
.	16cc#\	ve-	.	.
.	4cc#\	-rit	.	.
!	!LO:LB:g=original	!	!	!
=99	=99	=99	=99	=99
2ryy	8cc#\	ju-	2ryy	2ryy
.	8cc#\	-gum	.	.
.	8r	.	.	.
.	8cc#\	ab	.	.
=100	=100	=100	=100	=100
2ryy	4cc#\	a-	2ryy	2ryy
.	8cc#\	-do-	.	.
.	8cc#\	-les-	.	.
=101	=101	=101	=101	=101
2ryy	8.dd\	-cen-	2ryy	2ryy
.	16b\	-ti-	.	.
.	4b\	-a	.	.
=102	=102	=102	=102	=102
2ryy	4a\	su-	2ryy	2ryy
.	4g\	.	.	.
=103	=103	=103	=103	=103
2ryy	4a\	.	2ryy	2ryy
.	4b\	.	.	.
!	!LO:LB:g=original	!	!	!
=104	=104	=104	=104	=104
2ryy	2b\	-a,	2ryy	2ryy
=105	=105	=105	=105	=105
2ryy	2a;\	.	2ryy	2ryy
=106||	=106||	=106||	=106||	=106||
2ryy	4cc#\	Jod,	2ryy	2ryy
.	4b\	.	.	.
=107	=107	=107	=107	=107
2ryy	4a\	.	2ryy	2ryy
.	4b\	.	.	.
=108	=108	=108	=108	=108
2ryy	2a;\	.	2ryy	2ryy
=109||	=109||	=109||	=109||	=109||
2ryy	4a\	se-	2ryy	2ryy
.	(4b\	-de-	.	.
=110	=110	=110	=110	=110
2ryy	8cc#\)	.	2ryy	2ryy
.	8cc#\	-bit	.	.
.	8cc#\	so-	.	.
.	8cc#\	-li-	.	.
!	!LO:LB:g=original	!	!	!
=111	=111	=111	=111	=111
2ryy	8cc#\	-ta-	2ryy	2ryy
.	8cc#\	-ri-	.	.
.	4cc#\	-us	.	.
=112	=112	=112	=112	=112
2ryy	4dd\	et	2ryy	2ryy
.	4cc#\	ta-	.	.
=113	=113	=113	=113	=113
2ryy	4b\	-ce-	2ryy	2ryy
.	4b\	-bit,	.	.
=114	=114	=114	=114	=114
2ryy	4cc#\	.	2ryy	2ryy
.	4r	.	.	.
=115	=115	=115	=115	=115
2ryy	8r	.	2ryy	2ryy
.	8cc#\	qui	.	.
.	8cc#\	al-	.	.
.	8cc#\	-le-	.	.
!	!LO:LB:g=original	!	!	!
=116	=116	=116	=116	=116
2ryy	8cc#\	-va-	2ryy	2ryy
.	8cc#\	-vit	.	.
.	4r	.	.	.
=117	=117	=117	=117	=117
2ryy	4dd\	su-	2ryy	2ryy
.	4b\	.	.	.
=118	=118	=118	=118	=118
2ryy	4a\	.	2ryy	2ryy
.	4g\	.	.	.
=119	=119	=119	=119	=119
2ryy	4a\	-per-	2ryy	2ryy
.	4b\	.	.	.
=120	=120	=120	=120	=120
2ryy	2b\	-se,	2ryy	2ryy
=121	=121	=121	=121	=121
2ryy	2a;\	.	2ryy	2ryy
!	!LO:LB:g=original	!	!	!
=122||	=122||	=122||	=122||	=122||
2ryy	4cc#\	Jod,	2ryy	2ryy
.	4b\	.	.	.
=123	=123	=123	=123	=123
2ryy	4a\	.	2ryy	2ryy
.	4b\	.	.	.
=124	=124	=124	=124	=124
2ryy	2cc#;\	.	2ryy	2ryy
=125||	=125||	=125||	=125||	=125||
2ryy	4a\	po-	2ryy	2ryy
.	(4b\	.	.	.
=126	=126	=126	=126	=126
2ryy	8cc#\)	.	2ryy	2ryy
.	8cc#\	-net	.	.
.	8r	.	.	.
.	8cc#\	in	.	.
=127	=127	=127	=127	=127
2ryy	8cc#\	pul-	2ryy	2ryy
.	8cc#\	-ve-	.	.
.	4cc#\	-re	.	.
!	!LO:LB:g=original	!	!	!
=128	=128	=128	=128	=128
2ryy	4dd\	os-	2ryy	2ryy
.	4cc#\	.	.	.
=129	=129	=129	=129	=129
2ryy	4b\	-su-	2ryy	2ryy
.	(4b\	-um,	.	.
=130	=130	=130	=130	=130
2ryy	4cc#\)	.	2ryy	2ryy
.	4r	.	.	.
=131	=131	=131	=131	=131
2ryy	4r	.	2ryy	2ryy
.	4cc#\	si	.	.
=132	=132	=132	=132	=132
2ryy	4dd\	for-	2ryy	2ryy
.	4b\	-te	.	.
=133	=133	=133	=133	=133
2ryy	(4a\	sit	2ryy	2ryy
.	4g\)	.	.	.
!	!LO:LB:g=original	!	!	!
=134	=134	=134	=134	=134
2ryy	(4a\	.	2ryy	2ryy
.	4b\)	.	.	.
=135	=135	=135	=135	=135
2ryy	2b\	spes,	2ryy	2ryy
=136	=136	=136	=136	=136
2ryy	2a;\	.	2ryy	2ryy
=137	=137	=137	=137	=137
2ryy	2r	.	2ryy	2ryy
=138||	=138||	=138||	=138||	=138||
2ryy	4cc#\	Jod,	2ryy	2ryy
.	4b\	.	.	.
=139	=139	=139	=139	=139
2ryy	4a\	.	2ryy	2ryy
.	4b\	.	.	.
=140	=140	=140	=140	=140
2ryy	2a;\	.	2ryy	2ryy
!	!LO:PB:g=original	!	!	!
=141||	=141||	=141||	=141||	=141||
2ryy	4a\	da-	2ryy	2ryy
.	(4b\	.	.	.
=142	=142	=142	=142	=142
2ryy	8cc#\)	.	2ryy	2ryy
.	8cc#\	-bit	.	.
.	8r	.	.	.
.	8cc#\	per-	.	.
=143	=143	=143	=143	=143
2ryy	8cc#\	-cu-	2ryy	2ryy
.	8cc#\	-ti-	.	.
.	8cc#\	-en-	.	.
.	8cc#\	-ti	.	.
=144	=144	=144	=144	=144
2ryy	4dd\	se	2ryy	2ryy
.	4cc#\	ma-	.	.
=145	=145	=145	=145	=145
2ryy	4b\	-xi-	2ryy	2ryy
.	(4b\	-lam,	.	.
!	!LO:LB:g=original	!	!	!
=146	=146	=146	=146	=146
2ryy	4cc#\)	.	2ryy	2ryy
.	4r	.	.	.
=147	=147	=147	=147	=147
2ryy	8r	.	2ryy	2ryy
.	8cc#\	sa-	.	.
.	8cc#\	-tu-	.	.
.	8cc#\	-ra-	.	.
=148	=148	=148	=148	=148
2ryy	4dd\	-bi-	2ryy	2ryy
.	4b\	-tur	.	.
=149	=149	=149	=149	=149
2ryy	4a\	ap-	2ryy	2ryy
.	4g\	.	.	.
=150	=150	=150	=150	=150
2ryy	4a\	-pro-	2ryy	2ryy
.	8b\	.	.	.
.	8b\	-bri-	.	.
!	!LO:LB:g=original	!	!	!
=151	=151	=151	=151	=151
2ryy	2b\	-is,	2ryy	2ryy
=152	=152	=152	=152	=152
2ryy	2a;\	.	2ryy	2ryy
=153||	=153||	=153||	=153||	=153||
2ryy	4a\	Je-	2ryy	2ryy
.	(4b\	-ru-	.	.
=154	=154	=154	=154	=154
2ryy	8cc#\)	.	2ryy	2ryy
.	8cc#\	-sa-	.	.
.	4cc#\	-lem	.	.
=155	=155	=155	=155	=155
2ryy	4r	.	2ryy	2ryy
.	4cc#\	Je-	.	.
=156	=156	=156	=156	=156
2ryy	4dd\	-ru-	2ryy	2ryy
.	4cc#\	.	.	.
!	!LO:LB:g=original	!	!	!
=157	=157	=157	=157	=157
2ryy	8b\	.	2ryy	2ryy
.	8b\	-sa-	.	.
.	4b\	-lem,	.	.
=158	=158	=158	=158	=158
2ryy	4cc#\	.	2ryy	2ryy
.	4r	.	.	.
=159	=159	=159	=159	=159
2ryy	4a\	con-	2ryy	2ryy
.	(4b\	-ver-	.	.
=160	=160	=160	=160	=160
2ryy	8cc#\)	.	2ryy	2ryy
.	8cc#\	-te-	.	.
.	4cc#\	-re	.	.
=161	=161	=161	=161	=161
2ryy	8r	.	2ryy	2ryy
.	8cc#\	ad	.	.
.	8cc#\	Do-	.	.
.	16cc#\	-mi-	.	.
.	16cc#\	-num	.	.
!	!LO:LB:g=original	!	!	!
=162	=162	=162	=162	=162
2ryy	4dd\	De-	2ryy	2ryy
.	4b\	-um	.	.
=163	=163	=163	=163	=163
2ryy	4a\	tu-	2ryy	2ryy
.	4g\	.	.	.
=164	=164	=164	=164	=164
2ryy	4a\	.	2ryy	2ryy
.	4b\	.	.	.
=165	=165	=165	=165	=165
2ryy	2b\	-um.	2ryy	2ryy
=166	=166	=166	=166	=166
2ryy	2a;\	.	2ryy	2ryy
==	==	==	==	==
*-	*-	*-	*-	*-
!!!system-decoration: [(s1,s2,s3,s4)]
!!!ENC: Anastazja Marusiak
!!!END: 2023-11-17
!!!ENC: Leszek Kubiak
!!!END: 2024-06-12
